X: 8655
T: Cross Of Inverness, The
R: reel
M: 4/4
K: Gmajor
G|DB,B,D ECCB|cBAG FDDE|DB,B,D ECCG|FDAF G2GE|DB,B,D ECCB|
cBAG FEDC|B,DGD CEAE|FDAF G2G||
c|g2g2 ecce|^caca fdd=c|BgBg ecc^g|a^ga^c d2d=c|B/c/d gd ecce|
^c/d/e ag fd dg/a/|bdBg ecAc|B/c/d DF G3:|

